X: 4
T: Third song
N: Derived from ojibwa04.krn
C: Chippewa Songs ~ 1910
O: Red Wing, Minnesota, U.S.A
N: Chippewa Music by Frances Densmore, 1910
Z: transcribed to **kern format by Paul von Hippel and Daniel T. Shanahan
L: 1/8
M: 3/4
Q: 1/4=108
K: F clef=bass
%%linebreak <none>
D D3/ D/ [I:setbarnb 1]| 
D> D D> D C3/ C/ | 
A,2>C2 C3/ C/ | 
[M:4/4]C2>C2 C> C C3/ C/ | 
[M:3/4]A,2>A,2 A,3/ A,/ | 
G,4F,3/ D,/ | 
D,2>F,2F,2 | 
G,2>A,2 A,3/ A,/ | 
G,4F,3/ D,/ | 
D,2>F,2F,2 | 
D,4D,3/ D,/ | 
D,4A,3/ A,/ | 
A, A,/ A,< A, A,/A,2 | 
A,> A, A,> B, A, A,/ A,/ | 
G,4F,3/ D,/ | 
D,3 |]  



